X:1
T:Amours partez
T:Claudin de Sermisy
T:Source : Second livre contenant 31 chansons à 4, eslevées de plusieurs livres---Paris---P.Attaignant---1535. Editor : André Vierendeels (30/04/18) Notes : Original clefs : C1, C3, C4, F4 Original note values have been halved Editorial accidentals above the staff Square bracket indicates ligature
T:Amours partez
T:©
T:©
C:Claudin de Sermisy
Z:©
%%score [ 1 2 3 4 ]
L:1/8
Q:1/4=120
M:2/2
K:F
V:1 treble nm="Soprano" snm="S"
V:2 treble nm="Alto" snm="A"
V:3 treble-8 nm="Tenor" snm="T"
V:4 bass nm="Bass" snm="B"
V:1
 z4 F4 | FEFG A2 B2 | A2 c2 c2 c2 | A2 A2 F2 A2- | A2 GF EDEF | G2 F4 E2 | F4 z2 G2 | A2 A2 G4 | %8
w: A-|mours _ _ _ _ par-|tez, ie vous don-|ne la chas- *|||se, non|pas pour mal|
 z2 G2 A2 B2 | cBAG A2 B2- | BAGF E2 G2 | FEDC D4 | C4 z2 F2 | F2 E2 F4 | z2 F2 A2 A2 | %15
w: que m'a- vez|vous _ _ _ _ pro-||* * * * cu-|ré mais|faulx sem- blant|que met tou-|
 G2 F2 F3 E/D/ | E4 z2 F2 | FEFG A2 B2 | A2 c2 c2 c2 | A2 A2 F2 A2- | A2 GF EDEF | G2 F4 E2 | %22
w: te sa cu- * *|re à|de- * * * * sep-|voir, vous ba- nit|de ma gra- *|||
 F2 c2 c2 c2 | A2 A2 F2 A2- | A2 GF EDEF | G2 F4 E2 | F8 |] %27
w: ce, vous ba- nit|de ma gra- *|||ce.|
V:2
 z4 C4 | C2 C2 F2 F2 | F2 F2 E3 D | E2 FE DC C2- | C2 B,2 C4 | D2 B,2 C4 | A,2 C2 D2 E2 | C4 E4 | %8
w: A-|mours par- tez, ie|vous don- ne la|chas- * * * * *|||se, non pas pour|mal que|
 F2 E2 C2 D2 | E2 C2 F3 E | D4 CDEC | D2 C4 B,2 | C4 C4 | C2 C2 A,2 D2 | C3 B, A,2 D2- | %15
w: m'a- vez vous pro-|||* * cu-|ré, mais|faulx- sem- blant que|met tou- te la|
 DC C4 B,2 | C2 C4 C2 | C4 F2 F2 | F2 F2 E3 D | E2 FE DC C2- | C2 B,2 C4 | D2 B,2 C2 C2 | %22
w: _ _ cu- *|re à de-|cep- voir, vous|ba- nit de ma|gra- * * * * *||* * ce, vous|
 C2 C2 A,2 A,2 | F,G,A,B, CD C2- | C2 B,2 C4 | D2 B,2 C4 | A,8 |] %27
w: ba- nit de ma|gra- * * * * * *|||ce.|
V:3
 z4 A4 | AGAB c2 d2 | c4 z2 c2 | c2 c2 A2 A2 | F4 GFGA | BAGF G4 | F4 z2 c2 | A2 F2 c4 | B4 A2 F2 | %9
w: A-|mours _ _ _ _ par-|tez, ie|vous don- ne la|chas- * * * *||se, non|pas pour mal|que m'a- vez|
 G2 AB cA d2- | dcBA G3 A | B2 c2 G4 | z2 A2 A4 | G4 F2 B2 | AGAB c2 F2 | G2 A2 F4 | G4 z2 A2 | %17
w: vous pro- * * * *||* cu- ré,|mais faulx|sem- blant que|met _ _ _ _ tou-|te sa cu-|re à|
 AGAB c2 d2 | c4 z2 c2 | c2 c2 A2 A2 | F4 GFGA | BAGF G4 | F4 z2 c2 | c2 c2 A2 A2 | F4 GFGA | %25
w: de- * * * * cep-|voir, vous|ba- nit de ma|gra- * * * *||ce, vous|ba- nit de ma|gra- * * * *|
 BAGF G4 | F8 |] %27
w: |ce.|
V:4
 z4 F,4 | F,6 B,,2 | F,4 C,4 | z2 F,2 F,2 F,2 | D,2 D,2 C,4 | B,,2 D,2 C,4 | F,,2 F,2 D,2 C,2 | %7
w: A-|mours par-|tez, _|ie vous don-|ne la chas-||se, non pas pour|
 F,4 z2 C,2 | D,2 E,2 F,2 D,2 | C,2 F,3 E, D,C, | B,,4 C,4 | z4 z2 G,,2 | A,,2 F,,3 G,, A,,B,, | %13
w: mal que|m'a- vez vous pro-||cu- ré,|mais|faulx sem- * * *|
 C,4 z2 B,,2 | F,6 D,2 | E,2 F,2 D,4 | C,4 z2 F,2 | F,6 B,,2 | F,4 C,4 | z2 F,2 F,2 F,2 | %20
w: blant que|met tou-|te sa cu-|re à|de- *|cep- voir,|vous ba- nit|
 D,2 D,2 C,4 | B,,2 D,2 C,4 | F,,8 | z2 F,2 F,2 F,2 | D,2 D,2 C,4 | B,,2 D,2 C,4 | F,,8 |] %27
w: de ma gra-||ce,|vous ba- nit|de ma gra-||ce.|

